static/images/relentless-icon.svg

<?xml version="1.0" encoding="utf-8"?>
<!-- Generator: Adobe Illustrator 23.0.3, SVG Export Plug-In . SVG Version: 6.00 Build 0)  -->
<svg version="1.0" id="Capa_1" xmlns="http://www.w3.org/2000/svg" xmlns:xlink="http://www.w3.org/1999/xlink" x="0px" y="0px"
	 viewBox="0 0 515 515" style="enable-background:new 0 0 515 515;" xml:space="preserve">
<style type="text/css">
	.st0{fill:#CCCCCC;}
	.st1{fill:#999999;}
	.st2{fill:#666666;}
	.st3{fill:#FFFFFF;}
	.st4{fill:#C7001C;}
</style>
<path d="M0,386.7V119.3c0-4.6,4-8.6,8.6-8.6h405.4c4.6,0,8.6,4,8.6,8.6v267.4L0,386.7L0,386.7z"/>
<g>
	<path class="st0" d="M422.5,386.7V421c0,4.6-4,8.6-8.6,8.6H8.6c-4.6,0-8.6-4-8.6-8.6v-34.3H422.5L422.5,386.7z"/>
	<rect x="120.8" y="490.3" class="st0" width="180.9" height="9.9"/>
</g>
<g>
	<polygon class="st1" points="271.3,490.3 151.2,490.3 159.8,429.6 262.8,429.6 	"/>
	<rect x="17.2" y="127.9" class="st1" width="388.2" height="241.6"/>
</g>
<polygon class="st2" points="262.8,429.6 159.8,429.6 155,463.5 264.3,440.5 "/>
<circle class="st3" cx="231.5" cy="195.1" r="30.5"/>
<g>
	<path class="st4" d="M148.1,245.4l-26.5,33.1l29.1,29.1l34.4-27.8c6.6,4,14.6,6.6,22.5,7.9l4,46.3h21.2l0,0H254l4-46.3
		c7.9-1.3,15.9-5.3,22.5-7.9l34.4,27.8l29.1-29.1l-26.5-33.1c5.3-7.9,7.9-15.9,10.6-25.2l41-4v-41l-41-4
		c-2.6-9.3-6.6-17.2-10.6-25.2L344,113l-29.1-29.1l-34.4,26.5c-6.6-4-14.6-6.6-22.5-7.9l-4-45h-21.2l0,0h-21.2l-5.3,45
		c-7.9,1.3-15.9,5.3-22.5,7.9l-34.4-27.8l-29.1,29.1l26.5,33.1c-4,7.9-7.9,15.9-10.6,25.2l-41.1,4v41l42.4,4
		C138.8,229.5,142.8,237.4,148.1,245.4z M231.5,132.8c34.4,0,60.9,27.8,60.9,62.2s-27.8,62.2-60.9,62.2s-60.9-27.8-60.9-62.2
		S198.4,132.8,231.5,132.8z"/>
	<ellipse class="st4" cx="432.9" cy="84.6" rx="14.8" ry="14.8"/>
	<path class="st4" d="M364.6,74.2V95l20.8,1.5c1.5,4.5,3,8.9,5.9,13.4L378,126.2l14.8,14.8l17.8-14.8c3,1.5,7.4,3,11.9,4.5l1.5,23.8
		h10.4l0,0h8.9l1.5-23.8c4.5-1.5,7.4-3,11.9-4.5l17.8,14.8l14.8-14.8L476,109.8c3-4.5,4.5-8.9,5.9-13.4l20.8-1.5V74.2l-20.8-1.5
		c-1.5-4.5-3-8.9-5.9-11.9l13.4-16.3l-14.8-14.8l-17.8,14.8c-3-1.5-7.4-3-11.9-4.5l-1.5-25.2h-10.4l0,0h-10.4L421,37.1
		c-4.5,1.5-7.4,3-11.9,4.5l-17.8-14.8l-14.8,14.8l13.4,16.3c-3,4.5-4.5,8.9-5.9,11.9L364.6,74.2z M432.9,51.9
		c17.8,0,31.2,13.4,31.2,31.2s-13.4,31.2-31.2,31.2s-31.2-13.4-31.2-31.2S416.6,51.9,432.9,51.9z"/>
</g>
<g>
	<ellipse class="st0" cx="474.9" cy="240.3" rx="9.4" ry="9.4"/>
	<path class="st0" d="M515,246.2v-11.8l-11.8-1.2c-1.2-2.4-1.2-4.7-3.5-7.1l8.3-9.4l-8.3-8.3l-10.6,8.3c-2.4-1.2-4.7-2.4-7.1-2.4
		l-1.2-13h-5.9l0,0h-7.1l-1.2,13c-2.4,0-4.7,1.2-7.1,2.4l-10.6-8.3l-8.3,8.3l8.3,9.4c-1.2,2.4-2.4,4.7-3.5,7.1l-11.8,1.2v11.8
		l11.8,1.2c1.2,2.4,1.2,4.7,3.5,7.1l-8.3,9.4l8.3,8.3l10.6-8.3c2.4,1.2,4.7,2.4,7.1,2.4l1.2,13h5.9l0,0h5.9l1.2-13
		c2.4,0,4.7-1.2,7.1-2.4l10.6,8.3l8.3-8.3l-7.1-8.3c1.2-2.4,2.4-4.7,3.5-7.1L515,246.2z M474.9,259.1c-10.6,0-17.7-8.3-17.7-18.9
		s8.3-18.9,17.7-18.9s17.7,8.3,17.7,18.9S484.4,259.1,474.9,259.1z"/>
	<ellipse class="st0" cx="79.9" cy="303.1" rx="7.1" ry="7.1"/>
	<path class="st0" d="M46.9,297.2v9.4l9.4,2.4c0,2.4,1.2,4.7,2.4,5.9l-5.9,8.3l7.1,7.1l8.3-7.1c1.2,1.2,3.5,1.2,5.9,2.4l1.2,10.6
		h4.7l0,0h4.7l1.2-10.6c2.4,0,3.5-1.2,5.9-2.4l8.3,7.1l7.1-7.1l-5.9-8.3c1.2-1.2,2.4-3.5,2.4-5.9l9.4-1.2v-10.6l-9.4-1.2
		c0-2.4-1.2-4.7-2.4-5.9l5.9-8.3l-7.1-7.1l-8.3,7.1c-1.2-1.2-3.5-1.2-5.9-2.4l-1.2-10.6h-4.7l0,0h-4.7L74,279.5
		c-2.4,0-3.5,1.2-5.9,2.4l-8.3-7.1l-7.1,7.1l5.9,8.3c-1.2,1.2-2.4,3.5-2.4,5.9L46.9,297.2z M79.9,287.8c8.3,0,14.1,7.1,14.1,15.3
		s-7.1,15.3-14.1,15.3s-14.1-7.1-14.1-15.3C65.8,294.9,71.7,287.8,79.9,287.8z"/>
</g>
</svg>

<?xml version="1.0" encoding="UTF-8" standalone="no"?>
<!DOCTYPE svg PUBLIC "-//W3C//DTD SVG 1.1//EN" "http://www.w3.org/Graphics/SVG/1.1/DTD/svg11.dtd">
<svg width="100%" height="100%" viewBox="0 0 1214 1030" version="1.1" xmlns="http://www.w3.org/2000/svg" xmlns:xlink="http://www.w3.org/1999/xlink" xml:space="preserve" xmlns:serif="http://www.serif.com/" style="fill-rule:evenodd;clip-rule:evenodd;stroke-linejoin:round;stroke-miterlimit:2;">
    <g id="Artboard1" transform="matrix(1.61867,0,0,0.772114,0,0)">
        <rect x="0" y="0" width="750" height="1334" style="fill:none;"/>
        <g transform="matrix(1.23558,0,0,2.59029,113.674,5.68434e-14)">
            <path d="M0,386.7L0,119.3C0,114.7 4,110.7 8.6,110.7L414,110.7C418.6,110.7 422.6,114.7 422.6,119.3L422.6,386.7L0,386.7Z" style="fill-rule:nonzero;"/>
        </g>
        <g transform="matrix(1.23558,0,0,2.59029,113.674,5.68434e-14)">
            <path d="M422.5,386.7L422.5,421C422.5,425.6 418.5,429.6 413.9,429.6L8.6,429.6C4,429.6 0,425.6 0,421L0,386.7L422.5,386.7Z" style="fill:rgb(204,204,204);fill-rule:nonzero;"/>
        </g>
        <g transform="matrix(1.23558,0,0,2.59029,113.674,5.68434e-14)">
            <rect x="120.8" y="490.3" width="180.9" height="9.9" style="fill:rgb(204,204,204);"/>
        </g>
        <g transform="matrix(1.23558,0,0,2.59029,113.674,5.68434e-14)">
            <path d="M271.3,490.3L151.2,490.3L159.8,429.6L262.8,429.6L271.3,490.3Z" style="fill:rgb(153,153,153);fill-rule:nonzero;"/>
        </g>
        <g transform="matrix(1.23558,0,0,2.59029,113.674,5.68434e-14)">
            <rect x="17.2" y="127.9" width="388.2" height="241.6" style="fill:rgb(153,153,153);"/>
        </g>
        <g transform="matrix(1.23558,0,0,2.59029,113.674,5.68434e-14)">
            <path d="M262.8,429.6L159.8,429.6L155,463.5L264.3,440.5L262.8,429.6Z" style="fill:rgb(102,102,102);fill-rule:nonzero;"/>
        </g>
        <g transform="matrix(1.23558,0,0,2.59029,113.674,5.68434e-14)">
            <circle cx="231.5" cy="195.1" r="30.5" style="fill:white;"/>
        </g>
        <g transform="matrix(1.23558,0,0,2.59029,113.674,5.68434e-14)">
            <path d="M148.1,245.4L121.6,278.5L150.7,307.6L185.1,279.8C191.7,283.8 199.7,286.4 207.6,287.7L211.6,334L254,334L258,287.7C265.9,286.4 273.9,282.4 280.5,279.8L314.9,307.6L344,278.5L317.5,245.4C322.8,237.5 325.4,229.5 328.1,220.2L369.1,216.2L369.1,175.2L328.1,171.2C325.5,161.9 321.5,154 317.5,146L344,113L314.9,83.9L280.5,110.4C273.9,106.4 265.9,103.8 258,102.5L254,57.5L232.8,57.5L211.6,57.5L206.3,102.5C198.4,103.8 190.4,107.8 183.8,110.4L149.4,82.6L120.3,111.7L146.8,144.8C142.8,152.7 138.9,160.7 136.2,170L95.1,174L95.1,215L137.5,219C138.8,229.5 142.8,237.4 148.1,245.4ZM231.5,132.8C265.9,132.8 292.4,160.6 292.4,195C292.4,229.4 264.6,257.2 231.5,257.2C198.4,257.2 170.6,229.4 170.6,195C170.6,160.6 198.4,132.8 231.5,132.8Z" style="fill:rgb(199,0,28);fill-rule:nonzero;"/>
        </g>
        <g transform="matrix(1.23558,0,0,2.59029,113.674,5.68434e-14)">
            <circle cx="432.9" cy="84.6" r="14.8" style="fill:rgb(199,0,28);"/>
        </g>
        <g transform="matrix(1.23558,0,0,2.59029,113.674,5.68434e-14)">
            <path d="M364.6,74.2L364.6,95L385.4,96.5C386.9,101 388.4,105.4 391.3,109.9L378,126.2L392.8,141L410.6,126.2C413.6,127.7 418,129.2 422.5,130.7L424,154.5L443.3,154.5L444.8,130.7C449.3,129.2 452.2,127.7 456.7,126.2L474.5,141L489.3,126.2L476,109.8C479,105.3 480.5,100.9 481.9,96.4L502.7,94.9L502.7,74.2L481.9,72.7C480.4,68.2 478.9,63.8 476,60.8L489.4,44.5L474.6,29.7L456.8,44.5C453.8,43 449.4,41.5 444.9,40L443.4,14.8L433,14.8L422.6,14.8L421,37.1C416.5,38.6 413.6,40.1 409.1,41.6L391.3,26.8L376.5,41.6L389.9,57.9C386.9,62.4 385.4,66.8 384,69.8L364.6,74.2ZM432.9,51.9C450.7,51.9 464.1,65.3 464.1,83.1C464.1,100.9 450.7,114.3 432.9,114.3C415.1,114.3 401.7,100.9 401.7,83.1C401.7,65.3 416.6,51.9 432.9,51.9Z" style="fill:rgb(199,0,28);fill-rule:nonzero;"/>
        </g>
        <g transform="matrix(1.23558,0,0,2.59029,113.674,5.68434e-14)">
            <circle cx="474.9" cy="240.3" r="9.4" style="fill:rgb(204,204,204);"/>
        </g>
        <g transform="matrix(1.23558,0,0,2.59029,113.674,5.68434e-14)">
            <path d="M515,246.2L515,234.4L503.2,233.2C502,230.8 502,228.5 499.7,226.1L508,216.7L499.7,208.4L489.1,216.7C486.7,215.5 484.4,214.3 482,214.3L480.8,201.3L474.9,201.3L467.8,201.3L466.6,214.3C464.2,214.3 461.9,215.5 459.5,216.7L448.9,208.4L440.6,216.7L448.9,226.1C447.7,228.5 446.5,230.8 445.4,233.2L433.6,234.4L433.6,246.2L445.4,247.4C446.6,249.8 446.6,252.1 448.9,254.5L440.6,263.9L448.9,272.2L459.5,263.9C461.9,265.1 464.2,266.3 466.6,266.3L467.8,279.3L479.6,279.3L480.8,266.3C483.2,266.3 485.5,265.1 487.9,263.9L498.5,272.2L506.8,263.9L499.7,255.6C500.9,253.2 502.1,250.9 503.2,248.5L515,246.2ZM474.9,259.1C464.3,259.1 457.2,250.8 457.2,240.2C457.2,229.6 465.5,221.3 474.9,221.3C484.3,221.3 492.6,229.6 492.6,240.2C492.6,250.8 484.4,259.1 474.9,259.1Z" style="fill:rgb(204,204,204);fill-rule:nonzero;"/>
        </g>
        <g transform="matrix(1.23558,0,0,2.59029,113.674,5.68434e-14)">
            <circle cx="79.9" cy="303.1" r="7.1" style="fill:rgb(204,204,204);"/>
        </g>
        <g transform="matrix(1.23558,0,0,2.59029,113.674,5.68434e-14)">
            <path d="M46.9,297.2L46.9,306.6L56.3,309C56.3,311.4 57.5,313.7 58.7,314.9L52.8,323.2L59.9,330.3L68.2,323.2C69.4,324.4 71.7,324.4 74.1,325.6L75.3,336.2L84.7,336.2L85.9,325.6C88.3,325.6 89.4,324.4 91.8,323.2L100.1,330.3L107.2,323.2L101.3,314.9C102.5,313.7 103.7,311.4 103.7,309L113.1,307.8L113.1,297.2L103.7,296C103.7,293.6 102.5,291.3 101.3,290.1L107.2,281.8L100.1,274.7L91.8,281.8C90.6,280.6 88.3,280.6 85.9,279.4L84.7,268.8L80,268.8L75.3,268.8L74,279.5C71.6,279.5 70.5,280.7 68.1,281.9L59.8,274.8L52.7,281.9L58.6,290.2C57.4,291.4 56.2,293.7 56.2,296.1L46.9,297.2ZM79.9,287.8C88.2,287.8 94,294.9 94,303.1C94,311.3 86.9,318.4 79.9,318.4C72.9,318.4 65.8,311.3 65.8,303.1C65.8,294.9 71.7,287.8 79.9,287.8Z" style="fill:rgb(204,204,204);fill-rule:nonzero;"/>
        </g>
    </g>
</svg>
